X:1     %Music
T:Tramping Song
B:Singing Together, Summer 1971, BBC Publications
F:http://www.folkinfo.org/songs
M:4/4     %Meter
L:1/8     %
K:G
D3/2E/ |G2 G2 G3/2A/ B3/2c/ |d4 B2 A3/2G/ |E2 E2 E3/2F/ G3/2E/ | E4 D2
w:Let us go a-tramp-ing all to-ge-ther, Thro' the brack-en and the pur-ple heath-er,
 D3/2E/ |G2 G2 G3/2A/ B3/2c/ |d4 B2 G3/2A/ |B2 A3/2G/ E2 E2 | E6  |]
w: In the bright and sun-ny sum-mer weath-er; Now come tramp-ing a-long with me. 
     %End of file